public/sponsors/logo-covariant-bw.svg

<?xml version="1.0" encoding="UTF-8" standalone="no"?>
<svg
   width="49.891502"
   height="12.664266"
   viewBox="0 0 49.891502 12.664266"
   fill="none"
   class="logo logo--light"
   version="1.1"
   id="svg20"
   sodipodi:docname="logo-covariant-bw.svg"
   inkscape:version="1.2 (dc2aedaf03, 2022-05-15)"
   xmlns:inkscape="http://www.inkscape.org/namespaces/inkscape"
   xmlns:sodipodi="http://sodipodi.sourceforge.net/DTD/sodipodi-0.dtd"
   xmlns="http://www.w3.org/2000/svg"
   xmlns:svg="http://www.w3.org/2000/svg">
  <defs
     id="defs24" />
  <sodipodi:namedview
     id="namedview22"
     pagecolor="#ffffff"
     bordercolor="#000000"
     borderopacity="0.25"
     inkscape:showpageshadow="2"
     inkscape:pageopacity="0.0"
     inkscape:pagecheckerboard="0"
     inkscape:deskcolor="#d1d1d1"
     showgrid="false"
     inkscape:zoom="10.937197"
     inkscape:cx="11.154595"
     inkscape:cy="-15.497572"
     inkscape:window-width="1728"
     inkscape:window-height="1058"
     inkscape:window-x="-6"
     inkscape:window-y="-6"
     inkscape:window-maximized="1"
     inkscape:current-layer="svg20" />
  <g
     id="g316"
     style="fill:#ffffff"
     transform="matrix(0.5822515,0,0,0.5822515,2.7475292,2.5474981)">
    <path
       d="M 0,8.56982 C 0,7.28094 0.59927,6.0096 1.67042,5.35638 2.12409,4.39443 3.10489,3.52282 4.70252,3.52282 c 1.81535,0 3.46757,1.16215 3.9037,3.30444 H 7.24454 C 6.77266,5.28424 5.61052,4.64857 4.19424,4.64857 3.26804,4.64857 2.39708,4.9391 1.83421,5.44738 1.61647,6.01025 1.36233,6.9904 1.36233,7.9166 c 0,2.6324 1.27069,3.9941 2.9957,3.9941 1.48908,0 2.46923,-0.8353 2.86831,-2.21513 H 8.58802 C 8.13434,11.7469 6.68167,13 4.26704,13 1.59762,13 0,11.0754 0,8.56982 Z"
       fill="#FFFFFF"
       class="logo__c"
       id="path2"
       style="fill:#ffffff" />
    <path
       d="m 9.96725,8.24354 c 0,-2.9593 1.57945,-4.72072 4.37555,-4.72072 2.7962,0 4.3756,1.76077 4.3756,4.72072 C 18.7184,11.2035 17.139,13 14.3428,13 11.5467,13 9.96725,11.2392 9.96725,8.24354 Z m 7.44405,0 c 0,-2.28789 -1.1257,-3.64957 -3.0685,-3.64957 -1.9427,0 -3.0503,1.36168 -3.0503,3.64957 0,2.28786 1.1258,3.66716 3.0503,3.66716 1.9246,0 3.0685,-1.3435 3.0685,-3.66716 z"
       fill="#FFFFFF"
       class="logo__o"
       id="path4"
       style="fill:#ffffff" />
    <path
       d="m 19.4438,3.70416 h 1.3799 l 2.9775,8.67834 h 0.0364 l 2.9593,-8.67834 h 1.3798 L 24.9269,12.818 h -2.2515 z"
       fill="#FFFFFF"
       class="logo__v"
       id="path6"
       style="fill:#ffffff" />
    <path
       d="m 30.5004,11.0936 c -1.1986,-1.0529 -1.5067,-2.12405 -1.5067,-3.34079 0,-1.94275 1.4709,-4.22999 3.9941,-4.22999 1.634,0 2.8683,0.90801 3.3226,2.70517 h 0.0364 V 3.70416 h 1.3071 V 12.8187 H 36.3468 V 10.2948 H 36.3104 C 35.8568,12.0738 34.8578,13 33.2237,13 c -1.307,0 -2.4146,-0.9262 -2.7233,-1.9064 z m 5.9004,-2.83251 c 0,-1.96096 -1.0894,-3.61317 -2.9047,-3.61317 -1.9064,0 -3.2317,1.41628 -3.2317,3.95765 0,0.9444 0.0364,1.48843 0.3816,2.39643 0.7078,0.5993 1.7068,0.8716 2.5056,0.8716 1.5794,0 3.2498,-0.8898 3.2498,-3.61316 z"
       fill="#FFFFFF"
       class="logo__a logo__a--0"
       id="path8"
       style="fill:#ffffff" />
    <path
       d="m 40.0133,3.70416 h 1.3253 v 2.88651 h 0.0364 c 0.1813,-1.88816 1.2343,-3.0685 2.9775,-3.0685 0.5265,0 1.0529,0.091 1.4163,0.27234 L 45.3515,5.0652 C 45.0064,4.84746 44.4981,4.73826 44.008,4.73826 c -1.6522,0 -2.6688,1.43448 -2.6688,3.61317 V 12.818 H 40.014 V 3.70416 Z"
       fill="#FFFFFF"
       class="logo__r"
       id="path10"
       style="fill:#ffffff" />
    <path
       d="M 47.1662,1.56187 C 47.0031,1.39873 46.9121,1.18034 46.9121,0.908005 c 0,-0.254138 0.091,-0.471877 0.2541,-0.635669 C 47.3293,0.0909955 47.5477,0 47.8201,0 c 0.2723,0 0.49,0.0909955 0.6538,0.272336 0.1632,0.163142 0.2542,0.381531 0.2542,0.635669 0,0.272335 -0.091,0.490075 -0.2542,0.653865 -0.1631,0.18134 -0.3815,0.25414 -0.6538,0.25414 -0.2724,0 -0.4901,-0.0728 -0.6539,-0.25414 z m 0,2.14229 h 1.3071 v 9.11454 h -1.3071 z"
       fill="#FFFFFF"
       class="logo__i"
       id="path12"
       style="fill:#ffffff" />
    <path
       d="m 57.6781,6.22799 h 0.0364 V 3.70416 h 1.3071 V 12.8187 H 57.7145 V 10.2948 H 57.6781 C 57.2244,12.092 55.9895,13 54.3555,13 c -2.5238,0 -3.9941,-2.2879 -3.9941,-4.22999 0,-1.21609 0.3088,-2.28788 1.5067,-3.34083 0.3087,-0.98015 1.4162,-1.90636 2.7233,-1.90636 1.634,0 2.6324,0.92621 3.0867,2.70517 z M 52.0137,5.52017 c -0.3452,0.90801 -0.3816,1.45268 -0.3816,2.39643 0,2.542 1.3253,3.9577 3.2317,3.9577 1.9063,0 2.9047,-1.6523 2.9047,-3.61321 0,-2.72337 -1.6705,-3.61317 -3.2499,-3.61317 -0.7988,0 -1.7971,0.27233 -2.5056,0.8716 z"
       fill="#FFFFFF"
       class="logo__a logo__a--1"
       id="path14"
       style="fill:#ffffff" />
    <path
       d="m 61.381,3.70416 h 1.3071 l -0.0182,2.52383 h 0.0364 c 0.2723,-1.61582 1.2707,-2.70517 3.1049,-2.70517 2.0877,0 3.3044,1.16215 3.3044,3.63137 V 12.8187 H 67.7903 V 7.18994 c 0,-1.52482 -1.0347,-2.61417 -2.5056,-2.61417 -1.634,0 -2.596,1.32528 -2.596,3.24984 V 12.8187 H 61.3816 V 3.70416 Z"
       fill="#FFFFFF"
       class="logo__n"
       id="path16"
       style="fill:#ffffff" />
    <path
       d="M 71.8201,10.2402 V 4.72136 H 70.3492 V 3.70481 h 1.5431 V 0.545323 h 1.2342 V 3.70416 h 3.1231 v 1.01655 h -3.1231 v 5.60989 c 0,1.0165 0.5993,1.543 1.6523,1.543 0.4536,0 1.0529,-0.1449 1.4163,-0.3269 v 1.0893 c -0.4719,0.2178 -1.144,0.3633 -1.779,0.3633 -1.6886,0 -2.596,-1.0165 -2.596,-2.7597 z"
       fill="#FFFFFF"
       class="logo__t"
       id="path18"
       style="fill:#ffffff" />
  </g>
</svg>

<svg xmlns="http://www.w3.org/2000/svg" width="77" height="13" viewBox="0 0 77 13" fill="none" class="logo logo--light"><path d="M0 8.56982C0 7.28094 0.59927 6.0096 1.67042 5.35638C2.12409 4.39443 3.10489 3.52282 4.70252 3.52282C6.51787 3.52282 8.17009 4.68497 8.60622 6.82726H7.24454C6.77266 5.28424 5.61052 4.64857 4.19424 4.64857C3.26804 4.64857 2.39708 4.9391 1.83421 5.44738C1.61647 6.01025 1.36233 6.9904 1.36233 7.9166C1.36233 10.549 2.63302 11.9107 4.35803 11.9107C5.84711 11.9107 6.82726 11.0754 7.22634 9.69557H8.58802C8.13434 11.7469 6.68167 13 4.26704 13C1.59762 13 0 11.0754 0 8.56982Z" fill="#FFFFFF" class="logo__c"></path> <path d="M9.96725 8.24354C9.96725 5.28424 11.5467 3.52282 14.3428 3.52282C17.139 3.52282 18.7184 5.28359 18.7184 8.24354C18.7184 11.2035 17.139 13 14.3428 13C11.5467 13 9.96725 11.2392 9.96725 8.24354ZM17.4113 8.24354C17.4113 5.95565 16.2856 4.59397 14.3428 4.59397C12.4001 4.59397 11.2925 5.95565 11.2925 8.24354C11.2925 10.5314 12.4183 11.9107 14.3428 11.9107C16.2674 11.9107 17.4113 10.5672 17.4113 8.24354Z" fill="#FFFFFF" class="logo__o"></path> <path d="M19.4438 3.70416H20.8237L23.8012 12.3825H23.8376L26.7969 3.70416H28.1767L24.9269 12.818H22.6754L19.4438 3.70416Z" fill="#FFFFFF" class="logo__v"></path> <path d="M30.5004 11.0936C29.3018 10.0407 28.9937 8.96955 28.9937 7.75281C28.9937 5.81006 30.4646 3.52282 32.9878 3.52282C34.6218 3.52282 35.8561 4.43083 36.3104 6.22799H36.3468V3.70416H37.6539V12.8187H36.3468V10.2948H36.3104C35.8568 12.0738 34.8578 13 33.2237 13C31.9167 13 30.8091 12.0738 30.5004 11.0936ZM36.4008 8.26109C36.4008 6.30013 35.3114 4.64792 33.4961 4.64792C31.5897 4.64792 30.2644 6.0642 30.2644 8.60557C30.2644 9.54997 30.3008 10.094 30.646 11.002C31.3538 11.6013 32.3528 11.8736 33.1516 11.8736C34.731 11.8736 36.4014 10.9838 36.4014 8.26044L36.4008 8.26109Z" fill="#FFFFFF" class="logo__a logo__a--0"></path> <path d="M40.0133 3.70416H41.3386V6.59067H41.375C41.5563 4.70251 42.6093 3.52217 44.3525 3.52217C44.879 3.52217 45.4054 3.61317 45.7688 3.79451L45.3515 5.0652C45.0064 4.84746 44.4981 4.73826 44.008 4.73826C42.3558 4.73826 41.3392 6.17274 41.3392 8.35143V12.818H40.014V3.70416H40.0133Z" fill="#FFFFFF" class="logo__r"></path> <path d="M47.1662 1.56187C47.0031 1.39873 46.9121 1.18034 46.9121 0.908005C46.9121 0.653867 47.0031 0.436128 47.1662 0.272336C47.3293 0.0909955 47.5477 0 47.8201 0C48.0924 0 48.3101 0.0909955 48.4739 0.272336C48.6371 0.435478 48.7281 0.653867 48.7281 0.908005C48.7281 1.18034 48.6371 1.39808 48.4739 1.56187C48.3108 1.74321 48.0924 1.81601 47.8201 1.81601C47.5477 1.81601 47.33 1.74321 47.1662 1.56187ZM47.1662 3.70416H48.4733V12.8187H47.1662V3.70416Z" fill="#FFFFFF" class="logo__i"></path> <path d="M57.6781 6.22799H57.7145V3.70416H59.0216V12.8187H57.7145V10.2948H57.6781C57.2244 12.092 55.9895 13 54.3555 13C51.8317 13 50.3614 10.7121 50.3614 8.77001C50.3614 7.55392 50.6702 6.48213 51.8681 5.42918C52.1768 4.44903 53.2843 3.52282 54.5914 3.52282C56.2254 3.52282 57.2238 4.44903 57.6781 6.22799ZM52.0137 5.52017C51.6685 6.42818 51.6321 6.97285 51.6321 7.9166C51.6321 10.4586 52.9574 11.8743 54.8638 11.8743C56.7701 11.8743 57.7685 10.222 57.7685 8.26109C57.7685 5.53772 56.098 4.64792 54.5186 4.64792C53.7198 4.64792 52.7215 4.92025 52.013 5.51952L52.0137 5.52017Z" fill="#FFFFFF" class="logo__a logo__a--1"></path> <path d="M61.381 3.70416H62.6881L62.6699 6.22799H62.7063C62.9786 4.61217 63.977 3.52282 65.8112 3.52282C67.8989 3.52282 69.1156 4.68497 69.1156 7.15419V12.8187H67.7903V7.18994C67.7903 5.66512 66.7556 4.57577 65.2847 4.57577C63.6507 4.57577 62.6887 5.90105 62.6887 7.82561V12.8187H61.3816V3.70416H61.381Z" fill="#FFFFFF" class="logo__n"></path> <path d="M71.8201 10.2402V4.72136H70.3492V3.70481H71.8923V0.545323H73.1265V3.70416H76.2496V4.72071H73.1265V10.3306C73.1265 11.3471 73.7258 11.8736 74.7788 11.8736C75.2324 11.8736 75.8317 11.7287 76.1951 11.5467V12.636C75.7232 12.8538 75.0511 12.9993 74.4161 12.9993C72.7275 12.9993 71.8201 11.9828 71.8201 10.2396V10.2402Z" fill="#FFFFFF" class="logo__t"></path></svg>
